!!!SOCIAL_FUNCTION:	bird dance songs
!!!PDT:	1956
!!!OTL: No_165_Hair_Dance_Song_(c).krn
!!!LANG: Non-Tone
!!!LING_GROUP: Muskogean
!!!REG: Florida
**kern
*staff1
=1-
*clefF4
*k[f#c#g#d#]
*M2/4
4r
8.r
16c#\
=2
8.B\L
16c#\Jk
8B\L
(16B\L
16G#\JJ)
=3!|:
8.F#\L
16E\Jk
8.E\L
16F#\Jk
=4
8.C#/L
16BB/Jk
8BB/
8r
=5||
*M3/4
4BB/
8BB/L
8F#/J
8BB/
8r
=6||
*M5/8
4BB/
8C#/L
8BB/
8BB/J
=7
4F#\
8E\
4F#\
=8||
*M3/4
8E/L
8C#/J
4BB/
4r
=9
4BB/
12C#/L
12BB/
12BB/J
8.BB/L
16BB/Jk
=10||
*M2/4
8.BB/L
16BB/Jk
8.F#\L
16F#\Jk
=11
8.C#/L
16BB/Jk
8BB/
8r
=12||
*M3/4
4BB/
8BB/L
8F#/J
8BB/
8r
=13
4BB/
12C#/L
12BB/
12BB/J
8.BB/L
16C#/Jk
=14||
*M2/4
8.BB/L
16C#/Jk
8BB/
16r
16B\
=15
8.B\L
16G#\Jk
8.B\L
16B\Jk
=16:|!
*M3/4
8.BB/L
16C#/Jk
4BB/
4r
==
*-
